X: 1
T: Tankfulla L\aaten
C: Paul Dahlin
%%slurgraces 1
R: Sk\"ankl\aat
M: 4/4
L: 1/8
K: A
   AB \
| "A"{B}c2 cd e2 c2 \
| "E7"{A}B6 Bc \
| "D"d2 df "E7"ed cB \
| "A"AB cA "E7"E2 AB \
| "A"{B}c2 cd e2 c2 \
| "E7"{A}B6 Bc \
| "D"d2 dB "E7"EG BG \
| "A"A6 :|
|: A2 \
| "D"f3 e dc df \
| "A"ef ec A2 ce \
| "E7"Bc BA GA BG \
| "A"AB cd e2 e2 \
| "D"f3 g a2 gf \
| "A"ef ec A2 ce \
| "E"Bc BA GA BG \
| "A"A6 :|
